X:13
T: Leégett a Csiribiri csárda
O: Bugas-Alsómonostor (Bács-Kiskun), Fehér Józsefné - Kerekes Julianna (57), 1952.12
M:2/4
L:1/4
Q: "Tempo guisto" 1/4=100
N: A nép ajkára került műdal a századforduló éveiből
K: C
C/C/ F D | F D | E/F/ G | C z |
G/G/ cA | c A | B/c/d | G z |
G/G/ cA | c A | c/G/A/G/ | 
G/G/A/B/ | c G | F/E/ D | C z | 

